svg/regular/bx-beer.svg

<svg xmlns="http://www.w3.org/2000/svg" width="24" height="24"><path d="M20 6h-2V4a1 1 0 0 0-1-1H3a1 1 0 0 0-1 1v15c0 1.654 1.346 3 3 3h10c1.654 0 3-1.346 3-3v-1h2c1.103 0 2-.897 2-2V8c0-1.103-.897-2-2-2zm-4 13c0 .551-.448 1-1 1H5c-.552 0-1-.449-1-1V5h12v14zm4-3h-2V8h2v8z"/><path d="M6 7h2v10H6zm6 0h2v10h-2z"/></svg>

<svg xmlns="http://www.w3.org/2000/svg" width="24" height="24" viewBox="0 0 24 24"><path d="M20,6h-2V4c0-0.552-0.447-1-1-1H3C2.447,3,2,3.448,2,4v15c0,1.654,1.346,3,3,3h10c1.654,0,3-1.346,3-3v-1h2 c1.103,0,2-0.897,2-2V8C22,6.897,21.103,6,20,6z M16,19c0,0.551-0.448,1-1,1H5c-0.552,0-1-0.449-1-1V5h12V19z M20,16h-2V8h2V16z"/><path d="M6 7H8V17H6zM12 7H14V17H12z"/></svg>
